X: 1
T: Michael Queally's
M: 4/4
L: 1/8
R: reel
K: Gmaj
d2BG DGBc|dcBc AD (3DDD|d2BG DGBG|cBAg fage|
d2BG DGBc|dcBc AD (3DDD|d2BG DGBG|cBAA (3Bcd ef|
gd~d2 egde|~g3a bgef|gd~d2 egdB|cBAA (3Bcd ef|
gd~d2 egde|~g3a bgef|g2fg egdB|cBAg fage|
